symbols/web/hd/materialsymbolsrounded/hd_wght100grad200_48px.svg

<svg xmlns="http://www.w3.org/2000/svg" height="48" width="48"><path d="M14.2 29.3q.25 0 .425-.175t.175-.475V25.1h6v3.55q0 .3.175.475t.475.175q.25 0 .425-.175t.175-.475v-9.3q0-.3-.175-.475T21.4 18.7q-.25 0-.425.175t-.175.475v4.5h-6v-4.5q0-.3-.175-.475t-.475-.175q-.25 0-.425.175t-.175.475v9.3q0 .3.175.475t.475.175Zm12.65 0h4.75q1.15 0 2-.85.85-.85.85-2v-4.9q0-1.15-.85-2-.85-.85-2-.85h-4.75q-.4 0-.65.25t-.25.65v8.8q0 .4.25.65t.65.25Zm.35-1.25v-8.1h5.2q.3 0 .55.25.25.25.25.55v6.5q0 .3-.25.55-.25.25-.55.25ZM9.3 38q-1.35 0-2.35-1t-1-2.35v-21.3q0-1.4 1-2.375Q7.95 10 9.3 10h29.4q1.35 0 2.35.975t1 2.375v21.3q0 1.35-1 2.35t-2.35 1Zm0-1.75q-.7 0-1.15-.45-.45-.45-.45-1.15v-21.3q0-.7.45-1.15.45-.45 1.15-.45-.7 0-1.15.45-.45.45-.45 1.15v21.3q0 .7.45 1.15.45.45 1.15.45Zm0 0h29.4q.7 0 1.15-.45.45-.45.45-1.15v-21.3q0-.7-.45-1.15-.45-.45-1.15-.45H9.3q-.7 0-1.15.45-.45.45-.45 1.15v21.3q0 .7.45 1.15.45.45 1.15.45Z"/></svg>

<svg xmlns="http://www.w3.org/2000/svg" height="48" width="48"><path d="M14.2 29.3Q14.45 29.3 14.625 29.125Q14.8 28.95 14.8 28.65V25.1H20.8V28.65Q20.8 28.95 20.975 29.125Q21.15 29.3 21.45 29.3Q21.7 29.3 21.875 29.125Q22.05 28.95 22.05 28.65V19.35Q22.05 19.05 21.875 18.875Q21.7 18.7 21.4 18.7Q21.15 18.7 20.975 18.875Q20.8 19.05 20.8 19.35V23.85H14.8V19.35Q14.8 19.05 14.625 18.875Q14.45 18.7 14.15 18.7Q13.9 18.7 13.725 18.875Q13.55 19.05 13.55 19.35V28.65Q13.55 28.95 13.725 29.125Q13.9 29.3 14.2 29.3ZM26.85 29.3H31.6Q32.75 29.3 33.6 28.45Q34.45 27.6 34.45 26.45V21.55Q34.45 20.4 33.6 19.55Q32.75 18.7 31.6 18.7H26.85Q26.45 18.7 26.2 18.95Q25.95 19.2 25.95 19.6V28.4Q25.95 28.8 26.2 29.05Q26.45 29.3 26.85 29.3ZM27.2 28.05V19.95H32.4Q32.7 19.95 32.95 20.2Q33.2 20.45 33.2 20.75V27.25Q33.2 27.55 32.95 27.8Q32.7 28.05 32.4 28.05ZM9.3 38Q7.95 38 6.95 37Q5.95 36 5.95 34.65V13.35Q5.95 11.95 6.95 10.975Q7.95 10 9.3 10H38.7Q40.05 10 41.05 10.975Q42.05 11.95 42.05 13.35V34.65Q42.05 36 41.05 37Q40.05 38 38.7 38ZM9.3 36.25Q8.6 36.25 8.15 35.8Q7.7 35.35 7.7 34.65V13.35Q7.7 12.65 8.15 12.2Q8.6 11.75 9.3 11.75Q8.6 11.75 8.15 12.2Q7.7 12.65 7.7 13.35V34.65Q7.7 35.35 8.15 35.8Q8.6 36.25 9.3 36.25ZM9.3 36.25H38.7Q39.4 36.25 39.85 35.8Q40.3 35.35 40.3 34.65V13.35Q40.3 12.65 39.85 12.2Q39.4 11.75 38.7 11.75H9.3Q8.6 11.75 8.15 12.2Q7.7 12.65 7.7 13.35V34.65Q7.7 35.35 8.15 35.8Q8.6 36.25 9.3 36.25Z"/></svg>
